X: 89
T: No_185_Where_Are_You?.krn
N: Derived from No_185_Where_Are_You?.krn
%%abc-version 2.0
%%abcx-abcm2ps-target-version 5.9.1 (29 Sep 2008)
%%abc-creator hum2abc beta
%%abcx-conversion-date 2019/03/15 08:29:13
%%humdrum-veritas 538896820
%%humdrum-veritas-data 3244134299
%%linebreak <none>
%%barnumbers 0
L: 1/8
M: 3/4
%%staves {1 2}
V: 1 clef=bass
V: 2 clef=bass
K: G
[V:1] D/ [I:setbarnb 1]| 
[V:2] G,,/ | 
[V:1] D3/D/ _E3/E/ E3/D/ | 
[V:2] (3:2:9!accent!G,, z G,, !accent!G,, z G,, !accent!G,, z G,, | 
[V:1] D3/D/ (DB,)B,2 | 
[V:2] z6 | 
[V:1] B,/B,3/ B,3/B,/ (3B,A,B, ||  
[V:2] z6 ||  
[V:1] [M:2/4]G,3/G,/ G,3/B,/ ||  
[V:2] [M:2/4]z4 ||  
[V:1] [M:3/4]G,3/G,/ G,3/B,/ (3B,A,B, ||  
[V:2] [M:3/4]z6 ||  
[V:1] [M:2/4]G,/G,3/G,2 | 
[V:2] [M:2/4]z4 | 
[V:1] E,/E,3/E,2 | 
[V:2] z4 | 
[V:1] B,/G,3/G,2 | 
[V:2] z4 | 
[V:1] E,/G,3/G,2 | 
[V:2] z4 | 
[V:1] G,7/z/ |]  
[V:2] z4 |]  



% FRACTION = 0.499634BUT SHOULD BE 0
